logo/litmus.svg

<svg viewBox="0 0 256 256" xmlns="http://www.w3.org/2000/svg"><path fill="#6A7A55" d="M0 127.94c0 12.48 1.799 24.55 5.133 35.96l70.62-23.14c-.9-3.86-1.37-7.87-1.37-11.988 0-4.78.64-9.4 1.83-13.79L5.09 92.092c-3.32 11.37-5.1 23.39-5.1 35.83"/><path fill="#A09440" d="M93.59 87.94L48.93 27.26C30.17 42.007 15.64 61.881 7.45 84.76l71.28 22.93c3.34-7.72 8.45-14.48 14.84-19.78"/><path fill="#AFA148" d="M124.21 75.836V0C98.58.745 74.84 9.027 55.13 22.7l44.72 60.77c7.17-4.38 15.46-7.11 24.35-7.64"/><path fill="#4C5C59" d="M78.04 148.12L7.5 171.22c8.31 23.14 23.1 43.203 42.191 57.98l43.53-59.9c-6.69-5.65-11.95-12.92-15.19-21.2"/><path fill="#48555D" d="M55.934 233.725c19.55 13.34 42.99 21.41 68.27 22.15v-74.16c-9.06-.55-17.49-3.37-24.76-7.89l-43.53 59.88"/><path fill="#E3B23B" d="M200.148 22.21C180.608 8.852 157.178.76 131.909 0v75.92c8.58.71 16.59 3.48 23.52 7.79l44.71-61.52"/><path fill="#903024" d="M131.909 181.63v74.24c25.47-.77 49.06-8.98 68.69-22.53l-44.25-60.12c-7.15 4.65-15.48 7.65-24.46 8.39"/><path fill="#D65841" d="M162.495 168.57l44.31 60.21c19.03-14.9 33.73-35.06 41.92-58.3l-71.65-23.06c-3.09 8.2-8.14 15.44-14.6 21.12"/><path fill="#E6703E" d="M256 127.94c0-12.65-1.84-24.86-5.26-36.39l-72.05 23.59c1.15 4.35 1.78 8.91 1.78 13.63 0 3.87-.43 7.64-1.21 11.28l71.79 23.1c3.19-11.2 4.92-23.006 4.92-35.23"/><path fill="#F4A83A" d="M176.18 107.874l72.154-23.64c-8.34-22.94-23.04-42.818-41.97-57.51l-44.72 61.52c6.25 5.28 11.25 11.98 14.53 19.6"/></svg>

<?xml version="1.0" encoding="UTF-8" standalone="no"?>
<svg width="256px" height="256px" viewBox="0 0 256 256" version="1.1" xmlns="http://www.w3.org/2000/svg" xmlns:xlink="http://www.w3.org/1999/xlink" preserveAspectRatio="xMidYMid">
	<g>
		<path d="M0,127.94 C0,140.427 1.799,152.492 5.133,163.901 L75.753,140.77 C74.861,136.918 74.386,132.906 74.386,128.782 C74.386,124.009 75.035,119.391 76.218,114.992 L5.095,92.109 C1.784,103.479 0,115.5 0,127.94" fill="#6A7A55"></path>
		<path d="M93.597,87.948 L48.946,27.277 C30.192,42.024 15.664,61.898 7.466,84.785 L78.755,107.722 C82.101,100.01 87.212,93.243 93.597,87.948" fill="#A09440"></path>
		<path d="M124.211,75.836 L124.211,0 C98.583,0.745 74.848,9.027 55.136,22.7 L99.861,83.472 C107.036,79.097 115.326,76.37 124.211,75.836" fill="#AFA148"></path>
		<path d="M78.044,148.12 L7.512,171.222 C15.828,194.367 30.616,214.425 49.703,229.203 L93.234,169.311 C86.55,163.668 81.293,156.398 78.044,148.12" fill="#4C5C59"></path>
		<path d="M55.934,233.725 C75.488,247.071 98.927,255.144 124.211,255.88 L124.211,181.728 C115.159,181.184 106.726,178.36 99.459,173.84 L55.934,233.725" fill="#48555D"></path>
		<path d="M200.148,22.212 C180.609,8.854 157.182,0.763 131.909,0.005 L131.909,75.931 C140.496,76.648 148.499,79.413 155.436,83.729 L200.148,22.212" fill="#E3B23B"></path>
		<path d="M131.909,181.633 L131.909,255.875 C157.38,255.111 180.977,246.899 200.608,233.353 L156.363,173.234 C149.215,177.891 140.883,180.884 131.909,181.633" fill="#903024"></path>
		<path d="M162.495,168.577 L206.812,228.794 C225.845,213.902 240.546,193.736 248.74,170.5 L177.091,147.448 C174.001,155.648 168.953,162.888 162.495,168.577" fill="#D65841"></path>
		<path d="M256,127.94 C256,115.298 254.16,103.088 250.746,91.554 L178.702,115.151 C179.858,119.502 180.491,124.066 180.491,128.782 C180.491,132.655 180.069,136.429 179.281,140.065 L251.077,163.165 C254.275,151.973 256,140.159 256,127.94" fill="#E6703E"></path>
		<path d="M176.188,107.874 L248.342,84.24 C240.01,61.303 225.31,41.422 206.375,26.739 L161.657,88.265 C167.909,93.546 172.909,100.252 176.188,107.874" fill="#F4A83A"></path>
	</g>
</svg>
